X:539
T: BUKO VON HALBERSTADT
N: E1817A
O: Europa, Mitteleuropa, Deutschland, Zerbst
R: Kinder - Lied, Sage
M: 2/4
L: 1/16
K: F
 | c4A2d2 | c2cBA2z2 |
c2c2AAdd | c2cBA2
C2 | F2F2G2G2 | A4G2
C2 | F2F2G2G2 | A4G2
G2 | F2F2G2G2 | A2A2G2
B2 | A2FFG2CC | F2F2F2z2

@@@ Tune index: 5223
